public/images/Favorite.svg

<?xml version="1.0" encoding="UTF-8" standalone="no"?>
<!DOCTYPE svg PUBLIC "-//W3C//DTD SVG 1.1//EN" "http://www.w3.org/Graphics/SVG/1.1/DTD/svg11.dtd">
<!-- Created with Vectornator (http://vectornator.io/) -->
<svg height="100%" stroke-miterlimit="10" style="fill-rule:nonzero;clip-rule:evenodd;stroke-linecap:round;stroke-linejoin:round;" version="1.1" viewBox="0 0 250 250" width="100%" xml:space="preserve" xmlns="http://www.w3.org/2000/svg" xmlns:vectornator="http://vectornator.io" xmlns:xlink="http://www.w3.org/1999/xlink">
<defs/>
<g id="Layer-1" vectornator:layerName="Layer 1">
<path d="M100.75 70.5C81.42 70.5 65.75 86.335 65.75 105.875C65.75 115.885 69.8894 124.908 76.5 131.344L125.312 180.688L174 131.438L174.812 130.625L174.719 130.531C180.58 124.205 184.25 115.789 184.25 106.438C184.25 86.8975 168.58 71.0625 149.25 71.0625C139.998 71.0625 131.633 74.7294 125.375 80.6562L125.312 80.5938L125.25 80.6562C118.936 74.3921 110.296 70.5 100.75 70.5ZM101.969 76.6562C111.207 76.6562 119.381 80.8191 125 87.25L125.156 87.0938L125.406 87.3438C131.015 81.1779 139.014 77.2188 148.031 77.2188C164.959 77.2188 178.687 90.8797 178.688 107.719C178.687 116.821 174.608 124.882 168.25 130.469L125.156 173.344L81.8125 130.219L81.9375 130.094C75.4697 124.504 71.3125 116.349 71.3125 107.156C71.3125 90.3172 85.0414 76.6563 101.969 76.6562Z" fill="#000000" fill-rule="evenodd" opacity="1" stroke="none"/>
</g>
</svg>

<svg stroke-miterlimit="10" style="fill-rule:nonzero;clip-rule:evenodd;stroke-linecap:round;stroke-linejoin:round" viewBox="0 0 250 250" xml:space="preserve" xmlns="http://www.w3.org/2000/svg" xmlns:vectornator="http://vectornator.io"><path d="M100.75 70.5c-19.33 0-35 15.835-35 35.375 0 10.01 4.14 19.033 10.75 25.469l48.812 49.344L174 131.438l.812-.813-.093-.094c5.861-6.326 9.531-14.742 9.531-24.093 0-19.54-15.67-35.376-35-35.376-9.252 0-17.617 3.667-23.875 9.594l-.063-.062-.062.062c-6.314-6.264-14.954-10.156-24.5-10.156zm1.219 6.156c9.238 0 17.412 4.163 23.031 10.594l.156-.156.25.25c5.609-6.166 13.608-10.125 22.625-10.125 16.928 0 30.656 13.66 30.657 30.5-.001 9.102-4.08 17.163-10.438 22.75l-43.094 42.875-43.344-43.125.126-.125c-6.468-5.59-10.626-13.745-10.626-22.938 0-16.839 13.73-30.5 30.657-30.5z" fill-rule="evenodd" vectornator:layerName="Layer 1"/></svg>
